X: 80
T:The Countrey Coll
M:6/8
L:1/8
Q:110
R:Jig
K:G
g2d gdG|B>cd e2d|efg fga|dge f2d||
e3 d2B|cde d2B|gd2 B>cd|gd2 B>cd|Aa2 b2g||

